X: 1
T:Mohereavogue
T:Mothar Riabhógach
M:4/4
L:1/8
R:reel
F:http://www.slainte.ch/abc/myreels.txt
K:Ador
EAAB cBce | dB-~B2 gB-~B2 | EAAB cBce | dBGA BAAG |
EAAB cBce | dB-~B2 gB-~B2 | ~A3B cBce | dBGA BAA2 ||
eaag abag | efga gedg | eaag abaf | geGA BAA2 |
eaag abag | efga gfga | gA(3AAA cBce | dBGA BAA2 ||
W:Variation from ceolachan
K:Ador
EAAB cBce | dB ~B2 gB ~B2 | EAAB cBce | dBGA BA A2 |
EAAB cBce | dB ~B2 gB ~B2 | A3 B cBce | dBGA BA A2 ||
eaag abag | efga gedg | eaag abaf | geGA BA A2 |
eaag abag | efga gfga | gAAB cBce | dBGA BA A2 |]

